packages/kaspersky-hexa-ui-icons/src/iconsSVGs/64x42/FlagUs.svg

<svg width="64" height="42" viewBox="0 0 64 42" fill="none" xmlns="http://www.w3.org/2000/svg">
<g clip-path="url(#clip0_37941_2372)">
<rect width="64" height="42" rx="5" fill="white"/>
<path fill-rule="evenodd" clip-rule="evenodd" d="M64 0H0V2.8H64V0ZM64 5.60017H0V8.40017H64V5.60017ZM0 11.1998H64V13.9998H0V11.1998ZM64 16.8H0V19.6H64V16.8ZM0 22.4002H64V25.2002H0V22.4002ZM64 27.9998H0V30.7998H64V27.9998ZM0 33.6H64V36.4H0V33.6ZM64 39.2002H0V42.0002H64V39.2002Z" fill="#D02F44"/>
<rect width="25.2" height="19.6" fill="#46467F"/>
<path fill-rule="evenodd" clip-rule="evenodd" d="M4.20005 5.5998C4.97325 5.5998 5.60005 4.973 5.60005 4.1998C5.60005 3.42661 4.97325 2.7998 4.20005 2.7998C3.42685 2.7998 2.80005 3.42661 2.80005 4.1998C2.80005 4.973 3.42685 5.5998 4.20005 5.5998ZM9.8 5.59983C10.5732 5.59983 11.2 4.97303 11.2 4.19983C11.2 3.42663 10.5732 2.79983 9.8 2.79983C9.0268 2.79983 8.4 3.42663 8.4 4.19983C8.4 4.97303 9.0268 5.59983 9.8 5.59983ZM16.8002 4.19983C16.8002 4.97303 16.1734 5.59983 15.4002 5.59983C14.627 5.59983 14.0002 4.97303 14.0002 4.19983C14.0002 3.42663 14.627 2.79983 15.4002 2.79983C16.1734 2.79983 16.8002 3.42663 16.8002 4.19983ZM21.0001 5.59983C21.7733 5.59983 22.4001 4.97303 22.4001 4.19983C22.4001 3.42663 21.7733 2.79983 21.0001 2.79983C20.2269 2.79983 19.6001 3.42663 19.6001 4.19983C19.6001 4.97303 20.2269 5.59983 21.0001 5.59983ZM8.40017 6.99966C8.40017 7.77286 7.77337 8.39966 7.00017 8.39966C6.22697 8.39966 5.60017 7.77286 5.60017 6.99966C5.60017 6.22646 6.22697 5.59966 7.00017 5.59966C7.77337 5.59966 8.40017 6.22646 8.40017 6.99966ZM12.6001 8.39966C13.3733 8.39966 14.0001 7.77286 14.0001 6.99966C14.0001 6.22646 13.3733 5.59966 12.6001 5.59966C11.8269 5.59966 11.2001 6.22646 11.2001 6.99966C11.2001 7.77286 11.8269 8.39966 12.6001 8.39966ZM19.6 6.99966C19.6 7.77286 18.9732 8.39966 18.2 8.39966C17.4268 8.39966 16.8 7.77286 16.8 6.99966C16.8 6.22646 17.4268 5.59966 18.2 5.59966C18.9732 5.59966 19.6 6.22646 19.6 6.99966ZM21.0001 11.2C21.7733 11.2 22.4001 10.5732 22.4001 9.8C22.4001 9.0268 21.7733 8.4 21.0001 8.4C20.2269 8.4 19.6001 9.0268 19.6001 9.8C19.6001 10.5732 20.2269 11.2 21.0001 11.2ZM16.8002 9.8C16.8002 10.5732 16.1734 11.2 15.4002 11.2C14.627 11.2 14.0002 10.5732 14.0002 9.8C14.0002 9.0268 14.627 8.4 15.4002 8.4C16.1734 8.4 16.8002 9.0268 16.8002 9.8ZM9.8 11.2C10.5732 11.2 11.2 10.5732 11.2 9.8C11.2 9.0268 10.5732 8.4 9.8 8.4C9.0268 8.4 8.4 9.0268 8.4 9.8C8.4 10.5732 9.0268 11.2 9.8 11.2ZM5.60009 9.8C5.60009 10.5732 4.97328 11.2 4.20009 11.2C3.42689 11.2 2.80009 10.5732 2.80009 9.8C2.80009 9.0268 3.42689 8.4 4.20009 8.4C4.97328 8.4 5.60009 9.0268 5.60009 9.8ZM7.00017 13.9998C7.77337 13.9998 8.40017 13.373 8.40017 12.5998C8.40017 11.8266 7.77337 11.1998 7.00017 11.1998C6.22697 11.1998 5.60017 11.8266 5.60017 12.5998C5.60017 13.373 6.22697 13.9998 7.00017 13.9998ZM14.0001 12.5998C14.0001 13.373 13.3733 13.9998 12.6001 13.9998C11.8269 13.9998 11.2001 13.373 11.2001 12.5998C11.2001 11.8266 11.8269 11.1998 12.6001 11.1998C13.3733 11.1998 14.0001 11.8266 14.0001 12.5998ZM18.2 13.9998C18.9732 13.9998 19.6 13.373 19.6 12.5998C19.6 11.8266 18.9732 11.1998 18.2 11.1998C17.4268 11.1998 16.8 11.8266 16.8 12.5998C16.8 13.373 17.4268 13.9998 18.2 13.9998ZM22.4001 15.3997C22.4001 16.1729 21.7733 16.7997 21.0001 16.7997C20.2269 16.7997 19.6001 16.1729 19.6001 15.3997C19.6001 14.6265 20.2269 13.9997 21.0001 13.9997C21.7733 13.9997 22.4001 14.6265 22.4001 15.3997ZM15.4002 16.7997C16.1734 16.7997 16.8002 16.1729 16.8002 15.3997C16.8002 14.6265 16.1734 13.9997 15.4002 13.9997C14.627 13.9997 14.0002 14.6265 14.0002 15.3997C14.0002 16.1729 14.627 16.7997 15.4002 16.7997ZM11.2 15.3997C11.2 16.1729 10.5732 16.7997 9.8 16.7997C9.0268 16.7997 8.4 16.1729 8.4 15.3997C8.4 14.6265 9.0268 13.9997 9.8 13.9997C10.5732 13.9997 11.2 14.6265 11.2 15.3997ZM4.20009 16.7997C4.97328 16.7997 5.60009 16.1729 5.60009 15.3997C5.60009 14.6265 4.97328 13.9997 4.20009 13.9997C3.42689 13.9997 2.80009 14.6265 2.80009 15.3997C2.80009 16.1729 3.42689 16.7997 4.20009 16.7997Z" fill="url(#paint0_linear_37941_2372)"/>
</g>
<defs>
<linearGradient id="paint0_linear_37941_2372" x1="2.80005" y1="2.7998" x2="2.80005" y2="16.7998" gradientUnits="userSpaceOnUse">
<stop stop-color="white"/>
<stop offset="1" stop-color="#F0F0F0"/>
</linearGradient>
<clipPath id="clip0_37941_2372">
<rect width="64" height="42" rx="5" fill="white"/>
</clipPath>
</defs>
</svg>

<svg xmlns="http://www.w3.org/2000/svg" width="64" height="42" fill="none" viewBox="0 0 64 42"><g clip-path="url(#a)"><rect width="64" height="42" fill="#fff" rx="5"/><path fill="#d02f44" fill-rule="evenodd" d="M64 0H0v2.8h64zm0 5.6002H0v2.8h64zM0 11.1998h64v2.8H0zM64 16.8H0v2.8h64zM0 22.4002h64v2.8H0zm64 5.5996H0v2.8h64zM0 33.6h64v2.8H0zm64 5.6002H0v2.8h64z" clip-rule="evenodd"/><path fill="#46467f" d="M0 0h25.2v19.6H0z"/><path fill="url(#b)" fill-rule="evenodd" d="M4.2 5.5998c.7733 0 1.4-.6268 1.4-1.4s-.6267-1.4-1.4-1.4-1.4.6268-1.4 1.4.6269 1.4 1.4 1.4m5.6 0c.7732 0 1.4-.6268 1.4-1.4s-.6268-1.4-1.4-1.4-1.4.6268-1.4 1.4.6268 1.4 1.4 1.4m7.0002-1.4c0 .7732-.6268 1.4-1.4 1.4s-1.4-.6268-1.4-1.4.6268-1.4 1.4-1.4 1.4.6268 1.4 1.4m4.1999 1.4c.7732 0 1.4-.6268 1.4-1.4s-.6268-1.4-1.4-1.4-1.4.6268-1.4 1.4.6268 1.4 1.4 1.4m-12.6 1.3999c0 .7732-.6267 1.4-1.4 1.4-.7731 0-1.4-.6268-1.4-1.4s.6269-1.4 1.4-1.4c.7733 0 1.4.6268 1.4 1.4m4.2 1.4c.7732 0 1.4-.6268 1.4-1.4s-.6268-1.4-1.4-1.4-1.4.6268-1.4 1.4.6268 1.4 1.4 1.4m6.9999-1.4c0 .7732-.6268 1.4-1.4 1.4s-1.4-.6268-1.4-1.4.6268-1.4 1.4-1.4 1.4.6268 1.4 1.4M21.0001 11.2c.7732 0 1.4-.6268 1.4-1.4s-.6268-1.4-1.4-1.4-1.4.6268-1.4 1.4.6268 1.4 1.4 1.4m-4.1999-1.4c0 .7732-.6268 1.4-1.4 1.4s-1.4-.6268-1.4-1.4.6268-1.4 1.4-1.4 1.4.6268 1.4 1.4M9.8 11.2c.7732 0 1.4-.6268 1.4-1.4s-.6268-1.4-1.4-1.4-1.4.6268-1.4 1.4.6268 1.4 1.4 1.4M5.6 9.8c0 .7732-.6267 1.4-1.4 1.4-.7731 0-1.4-.6268-1.4-1.4s.6269-1.4 1.4-1.4c.7733 0 1.4.6268 1.4 1.4m1.4002 4.1998c.7732 0 1.4-.6268 1.4-1.4s-.6268-1.4-1.4-1.4-1.4.6268-1.4 1.4.6268 1.4 1.4 1.4m6.9999-1.4c0 .7732-.6268 1.4-1.4 1.4s-1.4-.6268-1.4-1.4.6268-1.4 1.4-1.4 1.4.6268 1.4 1.4m4.1999 1.4c.7732 0 1.4-.6268 1.4-1.4s-.6268-1.4-1.4-1.4-1.4.6268-1.4 1.4.6268 1.4 1.4 1.4m4.2001 1.3999c0 .7732-.6268 1.4-1.4 1.4s-1.4-.6268-1.4-1.4.6268-1.4 1.4-1.4 1.4.6268 1.4 1.4m-6.9999 1.4c.7732 0 1.4-.6268 1.4-1.4s-.6268-1.4-1.4-1.4-1.4.6268-1.4 1.4.6268 1.4 1.4 1.4m-4.2002-1.4c0 .7732-.6268 1.4-1.4 1.4s-1.4-.6268-1.4-1.4.6268-1.4 1.4-1.4 1.4.6268 1.4 1.4m-7 1.4c.7733 0 1.4-.6268 1.4-1.4s-.6267-1.4-1.4-1.4c-.7731 0-1.4.6268-1.4 1.4s.6269 1.4 1.4 1.4" clip-rule="evenodd"/></g><defs><linearGradient id="b" x1="3" x2="3" y1="3" y2="17" gradientUnits="userSpaceOnUse"><stop stop-color="#fff"/><stop offset="1" stop-color="#f0f0f0"/></linearGradient><clipPath id="a"><rect width="64" height="42" fill="#fff" rx="5"/></clipPath></defs></svg>
